frontend/src/assets/icons/flash.svg

<svg width="24" height="24" viewBox="0 0 24 24" fill="none" xmlns="http://www.w3.org/2000/svg">
<g id="flash">
<path id="Icon" d="M13 2L4.09344 12.6879C3.74463 13.1064 3.57023 13.3157 3.56756 13.4925C3.56524 13.6461 3.63372 13.7923 3.75324 13.8889C3.89073 14 4.16316 14 4.70802 14H12L11 22L19.9065 11.3121C20.2553 10.8936 20.4297 10.6843 20.4324 10.5075C20.4347 10.3539 20.3663 10.2077 20.2467 10.1111C20.1092 10 19.8368 10 19.292 10H12L13 2Z" stroke="black" stroke-width="2" stroke-linecap="round" stroke-linejoin="round"/>
</g>
</svg>

<svg xmlns="http://www.w3.org/2000/svg" width="24" height="24" fill="none" viewBox="0 0 24 24">
  <path stroke="#000" stroke-linecap="round" stroke-linejoin="round" stroke-width="2" d="M13 2 4.093 12.688c-.348.418-.523.628-.525.804a.5.5 0 0 0 .185.397c.138.111.41.111.955.111H12l-1 8 8.907-10.688c.348-.418.523-.628.525-.804a.5.5 0 0 0-.185-.397c-.138-.111-.41-.111-.955-.111H12l1-8Z"/>
</svg>
